X:1
T:Paysages d'amour
T:Parmi les meules
T:Paysages d'amour
T:Augusta Holmès
T:(Holmès)
T:4. Parmi les meules
T:Ton original: en Mi ♮ (E major)
T:Creative Commons copyright waiver (CC0 1.0 Universal)
T:Creative Commons copyright waiver (CC0 1.0 Universal)
T:Creative Commons copyright waiver (CC0 1.0 Universal)
T:Creative Commons copyright waiver (CC0 1.0 Universal)
T:Creative Commons copyright waiver (CC0 1.0 Universal)
T:Creative Commons copyright waiver (CC0 1.0 Universal)
C:Augusta Holmès
Z:Augusta Holmès
Z:Creative Commons copyright waiver (CC0 1.0 Universal)
L:1/8
Q:1/4=132
M:4/4
K:E
V:1 treble nm="Chant\nVoice"
V:1
"^Allegro (" z8 | z8 | z8 | z8 | z8 | z8 | z8 | z8 |[Q:1/4=108]"^Allegretto" E2 D2 C2 D B, | %9
w: ||||||||Dans la plai- ne De|
 E2 F2 C2 D B, | E F G A B2 G E | F3 C D4 | E2 D2 C2 D B, | E2 F2 C2 D B, | E F G A B c B G | %15
w: par- fums plei- * ne,|Prés des meu- les d'or, au so-|leil cou- chant,|Mon a- man- te Rose|et char- man- * te,|Er- rait sur les blés cou- pés en|
 E2 F2 E2- E z | z8 | z8 | z8 | z8 | z8 | z8 | z8 | z8 ||[K:G] E2 G2 FE F A | G2 B2 AG A2 | %26
w: me cher- chant. *|||||||||In- qui- è- * te, La|Mi- gnon- net- * te|
 B d B d B2 A G | F3 G F4 | E2 G2 FE F A | G2 B2 AG A2 | B d B d e2 E G | F2 E2 B2- B z || %32
w: Ré- pé- tait mon nom, les grands|yeux en pleurs:|In- fi- dè- * le, Viens,|je t'ap- pel- * le,|Moi, qui t'ap- por- tais de si|bel- les fleurs! *|
[K:E] E2 D2 C2 D B, | E2 F2 C2 D B, | E F G A B2 G E | F3 C F4 | E2 D2 C2 D B, | E2 F2 C2 D B, | %38
w: Et la fiè- vre brû-|\- lait ma lè- * vre!|Les fleurs que je veux, ce sont|tes bai- sers!|Je ré- cla- me, ô|ma chère â- * me!|
 E F G A B c B G | E2 F2 E2- E z || z8 | z8 | z8 | z8 | z8 | z8 | z8 | z8 ||[K:G] E2 G2 FE F A | %49
w: Les bai- sers é- clos que tu m'as|re- fu- sés! *|||||||||"Il m'ap- pel- * le!  D'où|
 G2 B2 AG A2 | B d B d B2 A G | F3 G F4 | E2 G2 FE F A | G2 B2 AG A2 | B d B d e2 E G | %55
w: donc vient- el- * le,|Cet- te voix si ten- dre qui|tient mon coeur?|Qui, je t'ai- * me Plus|que moi- mê- * me...|Prends tous mes bai- sers, mon jo-|
 F2 E2 B2- B z ||[K:E] E2 D2 C2 D B, | E2 F2 C2 D B, | E F G A B2 G E | F3 C F4 | E2 D2 C2 D B, | %61
w: \- li vain- queur!" *|Ma char- man- te! Ma|rose a- man- * te!|Voi- ci ton ber- ger qui t'at-|tend tou- jours!|Dans la plai- ne De|
 E2 F2 C2 D B, | E F G A B e B2 | G4 F4 | E8- | E2 z2 z4 |] %66
w: par- fums plei- * ne,|Les é- toi- les d'or ver- ront|nos a-|mours!||

